Sources/FrostedUI/Resources/Icons.xcassets/lilstNumber16.imageset/lilst-number-16.svg

<svg width="16" height="16" viewBox="0 0 16 16" fill="none" xmlns="http://www.w3.org/2000/svg" data-fui-icon="true">
  <path
    d="M12.167 1.75C13.3174 1.75018 14.2498 2.68268 14.25 3.83301V12.167C14.2498 13.3173 13.3173 14.2498 12.167 14.25H3.83301C2.68268 14.2498 1.75018 13.3174 1.75 12.167V3.83301C1.75018 2.68267 2.68267 1.75018 3.83301 1.75H12.167ZM3.83301 3.25C3.5111 3.25018 3.25018 3.5111 3.25 3.83301V12.167C3.25018 12.4889 3.51109 12.7498 3.83301 12.75H12.167C12.4889 12.7498 12.7498 12.4889 12.75 12.167V3.83301C12.7498 3.51109 12.4889 3.25018 12.167 3.25H3.83301ZM5.33691 8.1875C6.0156 8.1875 6.75488 8.68561 6.75488 9.5166C6.7548 9.86805 6.61872 10.1441 6.4541 10.3506C6.70252 10.4728 6.875 10.7259 6.875 11.0215C6.87466 11.4354 6.539 11.7715 6.125 11.7715H4.5625C4.17422 11.7715 3.85487 11.4758 3.81641 11.0977L3.8125 11.0215C3.8125 10.5377 4.10285 10.2208 4.30957 10.0498C4.35648 10.011 4.4071 9.97383 4.45801 9.93848C4.33382 9.90244 4.21624 9.83717 4.12109 9.73633C3.83711 9.43488 3.85099 8.95983 4.15234 8.67578H4.15332V8.6748L4.1582 8.66992C4.16054 8.66776 4.164 8.66575 4.16699 8.66309C4.1731 8.65756 4.18075 8.65013 4.18945 8.64258C4.20688 8.62748 4.23027 8.60847 4.25781 8.58691C4.31264 8.54402 4.38999 8.48837 4.48535 8.43262C4.66605 8.327 4.96734 8.18753 5.33691 8.1875ZM11.4375 9.22949C11.8517 9.22949 12.1875 9.56528 12.1875 9.97949C12.1873 10.3936 11.8516 10.7295 11.4375 10.7295H7.89551C7.48155 10.7293 7.14567 10.3935 7.14551 9.97949C7.14551 9.56539 7.48144 9.22967 7.89551 9.22949H11.4375ZM5.17383 4.36523C5.40288 4.2049 5.70218 4.18541 5.9502 4.31445C6.19817 4.44362 6.35449 4.69988 6.35449 4.97949V7.0625C6.35433 7.47646 6.01845 7.81232 5.60449 7.8125C5.19038 7.8125 4.85466 7.47657 4.85449 7.0625V6.39844C4.53554 6.53377 4.155 6.43381 3.94824 6.13867C3.71074 5.79938 3.7936 5.33132 4.13281 5.09375L5.17383 4.36523ZM11.4375 5.27148C11.8517 5.27148 12.1875 5.60727 12.1875 6.02148C12.1872 6.43541 11.8515 6.77148 11.4375 6.77148H7.89551C7.48165 6.77131 7.14585 6.4353 7.14551 6.02148C7.14551 5.60738 7.48144 5.27166 7.89551 5.27148H11.4375Z"
    fill="currentColor"
  />
</svg>

<svg xmlns="http://www.w3.org/2000/svg" width="16" height="16" fill="none" data-fui-icon="true" viewBox="0 0 16 16"><path fill="currentColor" d="M12.167 1.75c1.15 0 2.083.933 2.083 2.083v8.334c0 1.15-.933 2.083-2.083 2.083H3.833a2.083 2.083 0 0 1-2.083-2.083V3.833c0-1.15.933-2.083 2.083-2.083zm-8.334 1.5a.583.583 0 0 0-.583.583v8.334c0 .322.261.583.583.583h8.334a.583.583 0 0 0 .583-.583V3.833a.583.583 0 0 0-.583-.583zm1.504 4.938c.679 0 1.418.498 1.418 1.329 0 .351-.136.627-.3.834a.748.748 0 0 1-.33 1.42H4.563a.75.75 0 0 1-.747-.673l-.003-.077c0-.483.29-.8.497-.971q.07-.058.148-.112a.743.743 0 0 1-.306-1.262h.001v-.001l.005-.005.009-.007.022-.02q.027-.024.069-.056c.055-.043.132-.099.227-.154.181-.106.482-.245.852-.245m6.1 1.041a.75.75 0 0 1 0 1.5H7.897a.75.75 0 0 1 0-1.5zM5.175 4.365a.75.75 0 0 1 1.18.614v2.084a.75.75 0 0 1-1.5 0v-.665a.75.75 0 0 1-.721-1.304zm6.264.906a.75.75 0 0 1 0 1.5H7.896a.75.75 0 0 1 0-1.5z"/></svg>
